X: 691
T: Wainiutizi
L: 1/8
M: 2/4
K: D
z A F A [I:setbarnb 1]| 
A Bd2 | 
d B f e/ f/ | 
d BA2 | 
d Ad2 | 
B A B A | 
A E F E | 
D4 | 
B AB2 | 
B2B c | 
d c B A | 
F E/ F/A2 | 
e d e d | 
BA2F | 
F A B A | 
FE2E | 
D4 |]

@@@ Tune index: 9565
